X: 3706
T: Bonnie Ina Campbell
P: The Top o' the Grampians
C:Colin MacPherson (The Harp & Claymore)
B:RSCDS 37-6
Z:Anselm Lingnau <anselm@strathspey.org>
R:Strathspey (8x32)
M:C
L:1/8
K:G
B|"G"d>e d>B A<G G>B|"Am"A<e e>d e>g "D"e<d|\
  "G"d>e d>B "Em"A<G G>E|"D7"D>B, D>E "G"G2 GB|
  "G"d>e d>B "Em"A<G G>B|"Am"A<e e>d e>g "D"e<d|\
  "Em"B>e e>d "G"B>d d>B|"Am"A>G "D"A<B "G"G2 G||
d|"G"g>b ag "C"e<g "G"d2|"Am"eaag e<a "D"a>b|\
  "G"g>b ag "C"e<g "G"d2|"D7"g<g b>a "G"g2 g>d|
  "G"g>b ag "C"e<g "G"d2|"Am"e<a ag e<a "D"a>b|\
  "G"b>g "D"a>f "Em"(3gfe "G"d>B|"Am"c>A "D7"d>B "G"G2 G|]
%%center Book37/3706-Bonnie_Ina_Campbell-AL.abc

%%sep 1 1 500
%%sep 1 1 500

